X: 5559
T: Burt Feintuch
R: jig
M: 6/8
K: Dmajor
Ade fed|BGB A2d|aba afd|ede efe|
Ade fed|BGB A2d|aba afd|cAcd3:|
faa afd|gbg afd|aba afd|Ace gec|
[1 faa afd|gbg afd|aba afd|cAcd3:|
[2 Ade fed|BGB A2d|aba afd|cAcd3||

